X: 144115
T: The CLIFF HORNPIPE
R: Hornpipe.
%R: hornpipe
B: James Kerr "Merry Melodies" v.1 p.44 s.1 #15
Z: 2016 John Chambers <jc:trillian.mit.edu>
M: C
L: 1/8
K: D
(F>E) |\
D>FA>F D>GB>G | A>Fd>A f>dA>F |\
G>Bd>g F>Ad>f | (3efd (3cdB (3ABG (3FGE |\
D>FA>F D>GB>G |
A>Fd>A f>dA>F |\
G>Be>g (3fed (3edc | d2f2d2 ::\
(c>d) |\
e>A^G>A f>AG>A | g>ef>d e>A^G>A |
g>ef>d e>cd>f | (3efd (3cdB (3ABG (3FGE |\
D>FA>F D>GB>G | A>Fd>A f>dA>F |\
G>Be>g (3fed (3edc | d2f2d2 H:|

%%sep 1 1 500
%%sep 1 1 500

